X:1
T:Title
%%score { ( 1 2 ) | ( 3 4 ) }
L:1/8
M:4/4
K:Eb
V:1 treble nm="Grand Piano"
V:2 treble 
V:3 bass 
V:4 bass 
V:1
 z4 z2[Q:1/4=100] z F | G2 G2 GA/G/ FE | c2 B2 G3 [EGB] | [Ac]de[EAc] [EGB]2 [B,EG]2 | %4
 [DF]GA[B,EG] [B,DF]3 G,/F/ | G2 G2 GA/G/ FE | c2 c2 B3 [GB] | [Ac]dec B2 A2 |[M:7/8] G2 [DF]2 E3 | %9
[M:1/4] GA |[M:4/4] z2 G2 G2 e2 | G6 E2 | [B,EG]2 [B,EG]2 [EGB]2 [B,EG]2 | [DF]6 z2 | %14
 z2 [DF]2 [DF]2 z2 | z2 [EG]2 [EG]2 E-[CEF] | [B,EG]2 [EGB]2 [DFA]2 .[B,DF]2 |[M:3/4] [G,E]6 |] %18
V:2
 z4 z2 E2 | x8 | x8 | E4 z4 | z4 z2 z E | x8 | x8 | x8 |[M:7/8] x7 |[M:1/4] x2 |[M:4/4] B6 z2 | %11
 z2 E2 E2 z F | x8 | B,2 B,2 B,2 z2 | x8 | z4 z2 .B,2 | x8 |[M:3/4] x6 |] %18
V:3
 z4 z2 G,A, | [E,B,E]2 [E,B,E]2 [B,E][K:treble][CF]/[B,E]/[K:bass] [A,D][E,G,] | %2
 [A,E]2 [G,B,E]2 [E,B,E]3 E, | z[K:treble] Bc[K:bass]A,, E,2 E,2 | z EFB,, B,,3 z/ A,/ | %5
 [E,B,E]2 [E,B,E]2 [B,E][K:treble][CF]/[B,E]/[K:bass] [A,D][E,G,] | [A,E]2 [A,E]2 [G,B,E]3 [E,E] | %7
 z Bc[A,EA] [G,E]2[K:bass] [A,CE]2 |[M:7/8] [B,E]2 [B,,A,]2 [E,G,]3 |[M:1/4] z2 | %10
[M:4/4] z2 [E,E]2 [E,E]2 z2 | z4 z2 .G,2 | E,2 E,2 E,2 E,2 | B,,2 B,,2 B,,2[K:treble] FG | %14
 A6[K:bass][K:treble] z2 | B6[K:bass] z2 | B,,2 B,,2 B,,2 z A, |[M:3/4] E,6 |] %18
V:4
 z4 z2 E,2 | z4 E,4[K:treble][K:bass] | x8 | A,,4[K:treble][K:bass] z4 | [B,,B,]4 z2 z E, | %5
 z4 E,4[K:treble][K:bass] | x8 | [A,E]4 z4[K:bass] |[M:7/8] x7 |[M:1/4] x2 |[M:4/4] x8 | %11
 z2 [E,B,]2 [E,B,]2 E,-[E,A,] | x8 | x6[K:treble] x2 | z2[K:bass] B,,2 B,,2[K:treble] c2 | %15
 z2[K:bass] E,2 E,2 G,,A,, | z4 z2 B,,2 |[M:3/4] x6 |] %18

